src/categories-icons-sprite/categories/svg-cat-outwear-men.svg

<svg width="34" height="35" viewBox="0 0 34 35" fill="none" xmlns="http://www.w3.org/2000/svg">
<path class="p-68544F" d="M33.2051 24.3331V25.4227L31.4151 27.3683H1.71214L0 25.4227V24.4499L1.98452 8.30776L6.40106 3.89122H8.83062L9.72806 0H12.7113C13.8106 0 14.8171 0.359938 15.6297 0.972157C15.9968 1.24908 16.3243 2.5494 16.6026 2.91842C16.8808 2.5494 17.2083 1.24908 17.5754 0.972157C18.388 0.359938 19.3945 0 20.4938 0H23.477V3.89122H26.804L31.2206 8.30776L33.2051 24.3331Z" fill="#76B7E2"/>
<path class="p-53433F" d="M33.2051 24.3331V25.4227L31.4152 27.3683H16.6025V2.93418C16.6025 2.17143 16.9515 1.44617 17.5588 0.984739C18.3743 0.365062 19.3872 0 20.4938 0H23.477L24.3745 3.89122H26.8041L31.2206 8.3077L33.2051 24.3331Z" fill="#58ADE5"/>
<path class="p-53433F" d="M33.2051 25.4229H0V29.3141H33.2051V25.4229Z" fill="#58ADE5"/>
<path class="p-3E322E" d="M33.2051 25.4229H16.6025V29.3141H33.2051V25.4229Z" fill="#4D98CB"/>
<path class="p-68544F" d="M27.3674 13.6191V29.3137L25.4218 31.2594H7.78155L5.83594 29.3137V13.6191H27.3674Z" fill="#76B7E2"/>
<path class="p-53433F" d="M27.3692 13.6196V29.3142L25.4236 31.2598H16.6035V13.6196H27.3692Z" fill="#58ADE5"/>
<path class="p-53433F" d="M27.3693 29.3145H5.83789V35.0005H27.3693V29.3145Z" fill="#58ADE5"/>
<path class="p-3E322E" d="M27.3673 29.3145H16.6016V35.0005H27.3673V29.3145Z" fill="#4D98CB"/>
<path class="p-3E322E" d="M29.3128 13.6196H27.3672V27.3686H29.3128V13.6196Z" fill="#4D98CB"/>
<path class="p-53433F" d="M5.83624 13.6191H3.89062V27.3681H5.83624V13.6191Z" fill="#58ADE5"/>
<path class="p-DFD7D5" d="M17.5745 0.971924V34.9997H15.6289V0.971924C15.996 1.24885 16.3235 1.57636 16.6017 1.94538C16.8799 1.57636 17.2074 1.24885 17.5745 0.971924Z" fill="#B9DFFC"/>
<path class="p-D2C5C2" d="M17.5753 0.971924C17.2083 1.24885 16.8808 1.57636 16.6025 1.94538V34.9997H17.5753V0.971924Z" fill="#A1D1FD"/>
</svg>

<svg width="34" height="35" fill="none" xmlns="http://www.w3.org/2000/svg"><path class="p-68544F" d="M33.205 24.333v1.09l-1.79 1.945H1.712L0 25.423v-.973L1.985 8.308 6.4 3.89h2.43L9.728 0h2.983c1.1 0 2.106.36 2.919.972.367.277.694 1.577.973 1.946.278-.369.605-1.669.972-1.946A4.822 4.822 0 0120.494 0h2.983v3.891h3.327l4.417 4.417 1.984 16.025z" fill="#76B7E2"/><path class="p-53433F" d="M33.205 24.333v1.09l-1.79 1.945H16.602V2.934c0-.763.35-1.488.957-1.95A4.823 4.823 0 0120.494 0h2.983l.898 3.891h2.43l4.416 4.417 1.984 16.025z" fill="#58ADE5"/><path class="p-53433F" d="M33.205 25.423H0v3.891h33.205v-3.891z" fill="#58ADE5"/><path class="p-3E322E" d="M33.205 25.423H16.603v3.891h16.602v-3.891z" fill="#4D98CB"/><path class="p-68544F" d="M27.367 13.62v15.694l-1.945 1.945H7.782l-1.946-1.945V13.619h21.531z" fill="#76B7E2"/><path class="p-53433F" d="M27.37 13.62v15.694l-1.946 1.946h-8.82V13.62h10.765z" fill="#58ADE5"/><path class="p-53433F" d="M27.37 29.314H5.837v5.687h21.531v-5.686z" fill="#58ADE5"/><path class="p-3E322E" d="M27.367 29.314H16.602v5.687h10.765v-5.686zM29.313 13.62h-1.946v13.749h1.946v-13.75z" fill="#4D98CB"/><path class="p-53433F" d="M5.836 13.62H3.891v13.748h1.945V13.62z" fill="#58ADE5"/><path class="p-DFD7D5" d="M17.575.972V35h-1.946V.972c.367.277.694.604.973.973.278-.369.605-.696.973-.973z" fill="#B9DFFC"/><path class="p-D2C5C2" d="M17.575.972a4.962 4.962 0 00-.973.973V35h.973V.972z" fill="#A1D1FD"/></svg>
